markup/sourceimages/icon2.svg

<svg xmlns="http://www.w3.org/2000/svg" width="231" height="131"><path fill-rule="evenodd" fill="#EDEDED" d="M227.114 44.868c-2.396-2.882-5.769-4.532-9.254-4.532h-5.24v-4.24c0-7.616-6.602-13.816-14.714-13.816h-6.908v-7.826c0-3.683-1.568-7.277-4.296-9.862-5.427-5.139-14.808-5.139-20.235 0-2.732 2.589-4.299 6.182-4.299 9.866v36.715H68.471V14.458c0-3.684-1.564-7.277-4.296-9.863-5.427-5.138-14.808-5.138-20.235 0-2.731 2.586-4.299 6.179-4.299 9.863v7.825h-7.748c-3.643 0-7.089 1.318-9.705 3.713-2.649 2.437-4.169 5.839-4.169 9.327v5.013h-5.19c-3.503 0-6.89 1.657-9.294 4.55C1.257 47.63 0 51.238 0 55.041v21.147c0 3.802 1.257 7.411 3.539 10.155 2.403 2.892 5.791 4.55 9.29 4.55h5.19v5.012c0 3.489 1.52 6.891 4.176 9.335 2.609 2.391 6.055 3.709 9.698 3.709h7.748v7.826c0 3.683 1.568 7.276 4.296 9.858 2.713 2.568 6.306 3.983 10.119 3.983 3.813 0 7.406-1.415 10.119-3.983 2.732-2.585 4.296-6.178 4.296-9.858V80.06h93.697v36.715c0 3.683 1.567 7.276 4.296 9.858 2.713 2.568 6.306 3.983 10.119 3.983 3.812 0 7.405-1.415 10.119-3.983 2.728-2.585 4.296-6.178 4.296-9.858v-7.826h6.908c8.112 0 14.714-6.197 14.714-13.816v-4.24h5.24c3.485 0 6.858-1.654 9.258-4.532 2.27-2.734 3.524-6.323 3.524-10.111V54.983c-.003-3.788-1.254-7.382-3.528-10.115zM12.829 83.671c-1.373 0-2.706-.694-3.751-1.951-1.19-1.426-1.871-3.444-1.871-5.532V55.041c0-2.087.681-4.103 1.871-5.533 1.045-1.256 2.378-1.95 3.751-1.95h5.19v36.113h-5.19zm19.064 18.055c-1.813 0-3.575-.66-4.825-1.809-1.19-1.094-1.842-2.517-1.842-4.012V35.323c0-1.495.652-2.921 1.834-4.008 1.262-1.152 3.02-1.813 4.833-1.813h7.748v72.224h-7.748zm29.37 15.049c0 1.729-.724 3.365-2.036 4.608-2.703 2.556-7.636 2.556-10.339 0-1.315-1.243-2.04-2.882-2.04-4.608V14.454c0-1.729.725-3.366 2.036-4.608 1.352-1.279 3.237-2.011 5.172-2.011 1.935 0 3.82.732 5.171 2.011 1.312 1.242 2.036 2.882 2.036 4.612V116.775zm7.208-43.938V58.392h93.697v14.445H68.471zm115.319 43.938c0 1.729-.724 3.365-2.036 4.608-2.703 2.556-7.636 2.556-10.339 0-1.315-1.243-2.04-2.882-2.04-4.608V14.458c0-1.73.725-3.366 2.036-4.608 1.352-1.278 3.236-2.012 5.172-2.012 1.935 0 3.82.734 5.171 2.012 1.312 1.238 2.036 2.878 2.036 4.608V116.775zm21.623-21.642c0 3.636-3.366 6.593-7.507 6.593h-6.908V29.502h6.908c4.137 0 7.507 2.958 7.507 6.594v59.037zm18.018-18.887c0 2.073-.677 4.07-1.852 5.489-1.038 1.249-2.36 1.936-3.719 1.936h-5.24V47.558h5.24c1.359 0 2.681.686 3.719 1.936 1.178 1.416 1.852 3.416 1.852 5.489v21.263z"/></svg>

<svg 
 xmlns="http://www.w3.org/2000/svg"
 xmlns:xlink="http://www.w3.org/1999/xlink"
 width="231px" height="131px">
<path fill-rule="evenodd"  fill="rgb(237, 237, 237)"
 d="M227.114,44.868 C224.718,41.986 221.345,40.336 217.860,40.336 L212.620,40.336 L212.620,36.096 C212.620,28.480 206.018,22.280 197.906,22.280 L190.998,22.280 L190.998,14.454 C190.998,10.771 189.430,7.177 186.702,4.592 C181.275,-0.547 171.894,-0.547 166.467,4.592 C163.735,7.181 162.168,10.774 162.168,14.458 L162.168,51.173 L68.471,51.173 L68.471,14.458 C68.471,10.774 66.907,7.181 64.175,4.595 C58.748,-0.543 49.367,-0.543 43.940,4.595 C41.209,7.181 39.641,10.774 39.641,14.458 L39.641,22.283 L31.893,22.283 C28.250,22.283 24.804,23.601 22.188,25.996 C19.539,28.433 18.019,31.835 18.019,35.323 L18.019,40.336 L12.829,40.336 C9.326,40.336 5.939,41.993 3.535,44.886 C1.257,47.630 -0.000,51.238 -0.000,55.041 L-0.000,76.188 C-0.000,79.990 1.257,83.599 3.539,86.343 C5.942,89.235 9.330,90.893 12.829,90.893 L18.019,90.893 L18.019,95.905 C18.019,99.394 19.539,102.796 22.195,105.240 C24.804,107.631 28.250,108.949 31.893,108.949 L39.641,108.949 L39.641,116.775 C39.641,120.458 41.209,124.051 43.937,126.633 C46.650,129.201 50.243,130.616 54.056,130.616 C57.869,130.616 61.462,129.201 64.175,126.633 C66.907,124.048 68.471,120.455 68.471,116.775 L68.471,80.060 L162.168,80.060 L162.168,116.775 C162.168,120.458 163.735,124.051 166.464,126.633 C169.177,129.201 172.770,130.616 176.583,130.616 C180.395,130.616 183.988,129.201 186.702,126.633 C189.430,124.048 190.998,120.455 190.998,116.775 L190.998,108.949 L197.906,108.949 C206.018,108.949 212.620,102.752 212.620,95.133 L212.620,90.893 L217.860,90.893 C221.345,90.893 224.718,89.239 227.118,86.361 C229.388,83.627 230.642,80.038 230.642,76.250 L230.642,54.983 C230.639,51.195 229.388,47.601 227.114,44.868 ZM12.829,83.671 C11.456,83.671 10.123,82.977 9.078,81.720 C7.888,80.294 7.207,78.276 7.207,76.188 L7.207,55.041 C7.207,52.954 7.888,50.938 9.078,49.508 C10.123,48.252 11.456,47.558 12.829,47.558 L18.019,47.558 L18.019,83.671 L12.829,83.671 L12.829,83.671 ZM31.893,101.726 C30.080,101.726 28.318,101.066 27.068,99.917 C25.878,98.823 25.226,97.400 25.226,95.905 L25.226,87.282 L25.226,43.947 L25.226,35.323 C25.226,33.828 25.878,32.402 27.060,31.315 C28.322,30.163 30.080,29.502 31.893,29.502 L39.641,29.502 L39.641,101.726 L31.893,101.726 L31.893,101.726 ZM61.263,116.775 C61.263,118.504 60.539,120.140 59.227,121.383 C56.524,123.939 51.591,123.939 48.888,121.383 C47.573,120.140 46.848,118.501 46.848,116.775 L46.848,105.338 L46.848,25.891 L46.848,14.454 C46.848,12.725 47.573,11.088 48.884,9.846 C50.236,8.567 52.121,7.835 54.056,7.835 C55.991,7.835 57.876,8.567 59.227,9.846 C60.539,11.088 61.263,12.728 61.263,14.458 L61.263,54.784 L61.263,76.452 L61.263,116.775 ZM68.471,72.837 L68.471,58.392 L162.168,58.392 L162.168,72.837 L68.471,72.837 ZM183.790,116.775 C183.790,118.504 183.066,120.140 181.754,121.383 C179.051,123.939 174.118,123.939 171.415,121.383 C170.100,120.140 169.375,118.501 169.375,116.775 L169.375,76.448 L169.375,54.780 L169.375,14.458 C169.375,12.728 170.100,11.092 171.411,9.850 C172.763,8.572 174.647,7.838 176.583,7.838 C178.518,7.838 180.403,8.572 181.754,9.850 C183.066,11.088 183.790,12.728 183.790,14.458 L183.790,25.894 L183.790,105.342 L183.790,116.775 ZM205.413,95.133 C205.413,98.769 202.047,101.726 197.906,101.726 L190.998,101.726 L190.998,29.502 L197.906,29.502 C202.043,29.502 205.413,32.460 205.413,36.096 L205.413,43.947 L205.413,87.282 L205.413,95.133 ZM223.431,76.246 C223.431,78.319 222.754,80.316 221.579,81.735 C220.541,82.984 219.219,83.671 217.860,83.671 L212.620,83.671 L212.620,47.558 L217.860,47.558 C219.219,47.558 220.541,48.244 221.579,49.494 C222.757,50.910 223.431,52.910 223.431,54.983 L223.431,76.246 Z"/>
</svg>
